X:1
T:Queen of the Rails
M:4/4
L:1/8
K:C
 z6 G,2| C3/2 C/2 CD E3/2 E/2 DC| FF FG AA GF| EE EF GG F E/2E/2|
M:2/4
 DD DC| B,6| z G,/2 G,/2 CC| CD EE| DC FF| FG AA| G F/2F/2 DD| DE FF|\
 ED z C| C3/2 D/2
M:4/4
| C6 z E| FF FG A3/2 A/2 G3/2- F/2| EE EF G3/2 G/2 F3/2- E/2| DD DE FF ED|\

M:2/4
 CC CD|
M:4/4
 E8| FF FG AA G/2- F3/2| EE EF GG F E/2E/2| DD DE FF ED|
M:2/4
 z C C3/2 D/2|
M:4/4
 C6 z2|

